X:305
T: Bill Hart(e)'s Favorite
S: "The Ted Furey Collection of Irish Traditional Tunes"
Z: B.Black
L: 1/8
M: 6/8
R: jig
K: Amix
ABA ede|fed efe|ABA ede|fed B2 G|
ABA ede|fed efg|aba g2 e|fed B2 A :|
aba gfe|fed efg|aba gfe|fed B2 G|
aba gfe|fed efg|aba gfe|fed B2 A :|
